src/icons/svg/theme.svg

<?xml version="1.0" encoding="UTF-8" standalone="no"?>
<svg width="128px" height="128px" viewBox="0 0 128 128" version="1.1" xmlns="http://www.w3.org/2000/svg" xmlns:xlink="http://www.w3.org/1999/xlink">
    <!-- Generator: Sketch 40 (33762) - http://www.bohemiancoding.com/sketch -->
    <title>theme</title>
    <desc>Created with Sketch.</desc>
    <defs></defs>
    <g id="Page-1" stroke="none" stroke-width="1" fill="none" fill-rule="evenodd">
        <g id="theme" fill="#000000">
            <path d="M125.500793,36.9841464 L95.3348587,2.82965396 C93.7347301,1.01786203 91.5644405,7.07588437e-08 89.3014586,7.07588437e-08 C87.0384767,7.07588437e-08 84.8681871,1.01786203 83.2680585,2.82965396 L79.481852,7.11647502 C77.8819757,8.92806008 75.7121924,9.94617218 73.4495183,9.94698446 L54.5526147,9.94698446 C52.2896605,9.94776555 50.1193599,8.92941066 48.5202812,7.11647502 L44.7340746,2.82965396 C43.133946,1.01786199 40.9636564,0 38.7006745,0 C36.4376926,0 34.2674029,1.01786199 32.6672743,2.82965396 L2.49920719,36.9841464 C0.898996137,38.795845 2.77522031e-16,41.2530916 0,43.8152864 C-2.77522031e-16,46.3774811 0.898996137,48.8347277 2.49920719,50.6464263 L14.5660074,64.3087063 C16.7440513,66.7765485 19.9331324,67.7122905 22.8956618,66.7527981 C24.2458977,66.3180783 25.6046659,67.3445002 25.6046659,68.9336429 L25.6046659,118.339558 C25.6046659,123.652801 29.4441994,128 34.1369624,128 L93.8630376,128 C98.5558006,128 102.395334,123.652801 102.395334,118.339558 L102.395334,68.9336429 C102.395334,67.3445002 103.754102,66.3180783 105.104338,66.7527981 C108.066868,67.7122905 111.255949,66.7765485 113.433993,64.3087063 L125.500793,50.6464263 C127.101004,48.8347277 128,46.3774811 128,43.8152864 C128,41.2530916 127.101004,38.795845 125.500793,36.9841464 L125.500793,36.9841464 Z" id="Shape"></path>
        </g>
    </g>
</svg>

<svg width="128" height="128" xmlns="http://www.w3.org/2000/svg"><path d="M125.5 36.984L95.336 2.83C93.735 1.018 91.565 0 89.3 0c-2.263 0-4.433 1.018-6.033 2.83l-3.786 4.286c-1.6 1.812-3.77 2.83-6.032 2.831H54.553c-2.263 0-4.434-1.018-6.033-2.83L44.734 2.83C43.134 1.018 40.964 0 38.701 0c-2.263 0-4.434 1.018-6.034 2.83L2.5 36.984C.9 38.796 0 41.254 0 43.815c0 2.562.899 5.02 2.5 6.831L14.565 64.31c2.178 2.468 5.367 3.403 8.33 2.444 1.35-.435 2.709.592 2.709 2.18v49.407c0 5.313 3.84 9.66 8.532 9.66h59.726c4.693 0 8.532-4.347 8.532-9.66V68.934c0-1.59 1.36-2.616 2.71-2.181 2.962.96 6.15.024 8.329-2.444L125.5 50.646c1.6-1.811 2.499-4.269 2.499-6.83 0-2.563-.899-5.02-2.5-6.832z" fill-rule="evenodd"/></svg>
